packages/web-icons/svgs/mail.svg

<svg viewBox="0 0 49 38" xmlns="http://www.w3.org/2000/svg" class="ridi_icon"><path d="M45.6 33.5V13c-.5.6-1.2 1.3-1.9 1.7-4.8 3.7-8.6 6.7-11.4 9-.9.8-1.6 1.3-2.2 1.8-.5.4-1.3.9-2.3 1.3-.9.5-1.9.6-2.7.6-.9 0-1.8-.2-2.7-.6-.9-.5-1.7-.9-2.3-1.3-.5-.4-1.3-1-2.2-1.8-2.8-2.4-6.6-5.3-11.4-9-.6-.5-1.3-1.1-1.9-1.7v20.6c0 .2.1.5.2.6.2.2.4.2.6.2h39.4c.2 0 .5-.1.6-.2.1-.2.2-.4.2-.7zm0-28.1v-.9c0-.2 0-.3-.1-.3s-.1-.1-.2-.2c-.1-.2-.2-.2-.2-.2s-.2 0-.4-.1H5.3c-.2 0-.5.1-.6.2-.1.1-.2.4-.2.6 0 3 1.3 5.5 3.9 7.6 3.5 2.7 7 5.6 10.8 8.5.1.1.4.3.9.8s.9.8 1.3 1c.3.2.7.5 1.2.9.5.3.9.5 1.3.7.4.2.8.2 1.2.2.4 0 .7-.1 1.2-.2.4-.2.9-.4 1.3-.7.5-.3.9-.6 1.2-.9.3-.2.7-.5 1.3-1 .5-.5.9-.7.9-.8 3.7-2.9 7.3-5.8 10.8-8.5.9-.8 1.9-1.8 2.7-3.1.7-1.3 1.1-2.5 1.1-3.6zm3.4-.9v29.1c0 1.2-.4 2.2-1.3 3.1-.9.9-1.9 1.3-3.1 1.3H5.3c-1.2 0-2.2-.4-3.1-1.3-.9-.9-1.3-1.9-1.3-3.1V4.5c0-1.2.4-2.2 1.3-3.1C3.1.5 4.1.1 5.3.1h39.4c1.2 0 2.2.4 3.1 1.3.8.9 1.2 1.9 1.2 3.1z"/></svg>

<?xml version="1.0" encoding="UTF-8"?>
<svg width="49px" height="38px" viewBox="0 0 49 38" version="1.1" xmlns="http://www.w3.org/2000/svg">
  <!-- Generator: Sketch 41.2 (35397) - http://www.bohemiancoding.com/sketch -->
  <title>mail</title>
  <desc>Created with Sketch.</desc>
  <defs></defs>
  <g id="Page-1" stroke="none" stroke-width="1" fill="none" fill-rule="evenodd">
    <g id="mail" fill="#000000">
      <g id="레이어_1">
        <path d="M45.6,33.5 L45.6,13 C45.1,13.6 44.4,14.3 43.7,14.7 C38.9,18.4 35.1,21.4 32.3,23.7 C31.4,24.5 30.7,25 30.1,25.5 C29.6,25.9 28.8,26.4 27.8,26.8 C26.9,27.3 25.9,27.4 25.1,27.4 L25.1,27.4 L25.1,27.4 C24.2,27.4 23.3,27.2 22.4,26.8 C21.5,26.3 20.7,25.9 20.1,25.5 C19.6,25.1 18.8,24.5 17.9,23.7 C15.1,21.3 11.3,18.4 6.5,14.7 C5.9,14.2 5.2,13.6 4.6,13 L4.6,33.6 C4.6,33.8 4.7,34.1 4.8,34.2 C5,34.4 5.2,34.4 5.4,34.4 L44.8,34.4 C45,34.4 45.3,34.3 45.4,34.2 C45.5,34 45.6,33.8 45.6,33.5 L45.6,33.5 Z M45.6,5.4 L45.6,4.8 L45.6,4.5 C45.6,4.3 45.6,4.2 45.5,4.2 C45.4,4.2 45.4,4.1 45.3,4 C45.2,3.8 45.1,3.8 45.1,3.8 C45.1,3.8 44.9,3.8 44.7,3.7 L5.3,3.7 C5.1,3.7 4.8,3.8 4.7,3.9 C4.6,4 4.5,4.3 4.5,4.5 C4.5,7.5 5.8,10 8.4,12.1 C11.9,14.8 15.4,17.7 19.2,20.6 C19.3,20.7 19.6,20.9 20.1,21.4 C20.6,21.9 21,22.2 21.4,22.4 C21.7,22.6 22.1,22.9 22.6,23.3 C23.1,23.6 23.5,23.8 23.9,24 C24.3,24.2 24.7,24.2 25.1,24.2 L25.1,24.2 L25.1,24.2 C25.5,24.2 25.8,24.1 26.3,24 C26.7,23.8 27.2,23.6 27.6,23.3 C28.1,23 28.5,22.7 28.8,22.4 C29.1,22.2 29.5,21.9 30.1,21.4 C30.6,20.9 31,20.7 31,20.6 C34.7,17.7 38.3,14.8 41.8,12.1 C42.7,11.3 43.7,10.3 44.5,9 C45.2,7.7 45.6,6.5 45.6,5.4 L45.6,5.4 Z M49,4.5 L49,33.6 C49,34.8 48.6,35.8 47.7,36.7 C46.8,37.6 45.8,38 44.6,38 L5.3,38 C4.1,38 3.1,37.6 2.2,36.7 C1.3,35.8 0.9,34.8 0.9,33.6 L0.9,4.5 C0.9,3.3 1.3,2.3 2.2,1.4 C3.1,0.5 4.1,0.1 5.3,0.1 L44.7,0.1 C45.9,0.1 46.9,0.5 47.8,1.4 C48.6,2.3 49,3.3 49,4.5 L49,4.5 Z" id="Shape"></path>
      </g>
    </g>
  </g>
</svg>
